X:1
T:*"DOLLI-A."
T:Arranged  W.G.Whittaker (1876-1944)
T:To Clarrie
T:©CPDL 2014
T:North Country Folk-Tunes
T:*"DOLLI-A."
T:©CPDL 2014
T:©CPDL 2014
T:©CPDL 2014
T:©CPDL 2014
T:©CPDL 2014
T:©CPDL 2014
T:©CPDL 2014
T:©CPDL 2014
T:©CPDL 2014
C:Arranged  W.G.Whittaker (1876-1944)
Z:©CPDL 2014
%%score [ ( 1 2 ) ( 3 4 ) 5 6 ]
L:1/8
Q:1/4=100
M:4/4
K:Bb
V:1 treble nm="Soprano" snm="S."
V:2 treble 
V:3 treble nm="Alto" snm="A."
V:4 treble 
V:5 treble-8 transpose=-12 nm="Tenor" snm="T."
V:6 bass nm="Bass" snm="B."
V:1
"^Allegretto. Simply" z8 | z8 | z8 | z8 | z8 | z8 | z8 | z8 |!mf! e2 dc dB G2 | (Bc) d2 (Bc) d2 | %10
w: ||||||||Dol- li the dil- len dol,|Dol- * li, Dol- * li,|
 e2 dc dB G2 |"^rit." (Bc) (d^F) G4 ||[K:Eb] z8 | z2!p! (cd) e2 (cd) | e2 z2 z4 | z8 | %16
w: Dol- li the dil- len dol,|Dol- * li- * a.||Dol- * li, Dol- *|li.||
"^tearfully"!p!!<(! cc"^poco rit." de f!<)!!>(!d!>)! c2 | (ef) g2 (ef) g>c | %18
w: The Black Cuffs is gawn a- way.|Dol- * li, Dol- * li, And|
!pp! c!<(!c de!<)! !>!f!>(!d!>)! c2 |"^a tempo" (ef) g2 c4 | z8 | %21
w: that 'll be a cry- ing day,|Dol- * li- a.||
 z2!p! (!>!e!>(!d)!>)! c2 (!>!e!>)!!>(!d) | c2 z2 z4 | z8 || %24
w: Dol- * li, Dol- *|li.||
[K:Bb]!f!"^Tempo primo" GG AB !>!cA G2 | (Bc) d2 (Bc) d2 | z8 | z4!f! (Bc) d2 |!f! GG AB cA G2 | %29
w: The Green Cuffs is cum- min' in,|Dol- * li, Dol- * li,|||The Green Cuffs is cum- min' in,|
 (Bc) d2 (Bc) d>G | GG AB cA G2 | (Bc) d2 G4 | !>!e2 dc dB G2 | (Bc) d2 (Bc) d2 | e2 dc dB G2 | %35
w: Dol- * li, Dol- * li, And|that 'll make the lass- es sing,|Dol- * li- a.|Dol- li the dil- len dol,|Dol- * li, Dol- * li,|Dol- li the dil- len dol,|
"^rit." (Bc) (d^F) G4 ||!ff! GG AB cA G2 | (Bc) d2 (Bc) d>G | GG AB cA G2 | %39
w: Dol- * li- * a.|The Green Cuffs is cum- min' in'|Dol- * li, Dol- * li, And|that 'll make the lass- es sing,|
"^rit." (Bc) d2 !fermata!G4 |] %40
w: Dol- * li- a.|
V:2
 x8 | x8 | x8 | x8 | x8 | x8 | x8 | x8 | x8 | x8 | x8 | x8 ||[K:Eb] x8 | x8 | x8 | x8 | x8 | x8 | %18
w: ||||||||||||||||||
 x8 | x8 | x8 | x8 | x8 | x8 ||[K:Bb] x8 | x8 | x8 | x4 (GA) B2 | x8 | x8 | x8 | x8 | x8 | x8 | %34
w: |||||||||Dol- * li,|||||||
 x8 | x8 || x8 | x8 | x8 | x8 |] %40
w: ||||||
V:3
 z8 | z8 | z8 | z8 |!p!!<(! GG AB!<)!!>(! cA!>)! G2 | (Bc) d2 (Bc) d2 | %6
w: ||||Fresh aa come frae Sand- gate Street,|* * li, Dol- * li,|
!<(! G2 A!<)!B!>(! cA G2!>)! | (Bc) d2 G4 | (GF) E2 (G4- | G2 ^F2) G2 z2 | %10
w: Ma best freends here to meet|Dol- * li- a.|Dol- * li, Dol-|* * li.|
!<(! CC D!<)!E!>(! G=F!>)! E2 |"^rit." G2 (^FD) B,4 ||[K:Eb] z8 |!p! cc =A=B cc (EF | %14
w: Fresh aa come frae Sand- gate Street,|Dol- li- * a-||The Black Cuffs is gawn a- way _|
!>(! G4)!>)!!pp! z4 |!<(! CC D!<)!F!>(! FD!>)! E2 | %16
w: _|That 'll be a cry- ing day|
"^tearfully"!p!!<(! GG"^poco rit." AB c!<)!!>(!A!>)! G2 |!<(! G4!<)!!>)!!>(! G4 | %18
w: The Black Cuffs is gawn a- way.|Dol- li.|
!pp! E!<(!G AB!<)! !>!c!>(!A!>)! G2 |"^a tempo" GA =Bc AF E2 | A2 GF GE C2 | (EF) G2 (EF) G2 | %22
w: That 'll be a cry- ing day,|That 'll be a cry- ing day,|Dol- li the dil- len dol,|Dol- * li, Dol- * li|
 A2 GF GE C2 |"^rit." (EF)!>(! (G=B,)!>)! C4 ||[K:Bb]!f! GG AB !>!cA G2 | (GA) B2 (GA) B2 | %26
w: Dol- li the dil- len dol,|Dol- * li- * a.|The Green Cuffs is cum- min' in,|Dol- * li, Dol- * li.|
 z4 z2!f! (Bc) | d2 Bc d2 B,C |!f! DD ED G^F G2 | (GA) (G^F) (GA) B>D | DD ED G^F G2 | G3 ^F G4 | %32
w: |li, Dol- * li, * *|The Green Cuffs is cum- min' in,|Dol- * li, _ Dol- * li, And|that 'll make the lass- es sing,|Dol- li- a|
 z4 !>!G2 =FE | FD B,2 D2 G2 | (G4 B,2) E2 |"^rit." !>!B"^prominent"A/G/ ^F/=E/D/C/ B,4 || %36
w: Dol- li the|dil- len dol Dol- li,|Dol- * li,|Dol- li the dil- len, dil- len dol.|
!ff! B,D _ED ^FF (GD) |"^prominent" G/G/=F/E/ D/^F/=E/D/ G/B/A/G/ F/E/(F/G/) | %38
w: The- Green Cuffs is cum- min' in, _|The Green Cuffs is cum- min' in, And that 'll make the lass- es sing, _|
 B,D _ED ^FF (GD/)D/ |"^rit." G/G/=F/E/ G^F !fermata!G4 |] %40
w: That 'll make the lass- es sing, _ And|that 'll make the lass- es sing.|
V:4
 x8 | x8 | x8 | x8 | x8 | x8 | x8 | x8 | x8 | x8 | x8 | x8 ||[K:Eb] x8 | x8 | x8 | x8 | x8 | x8 | %18
w: ||||||||||||||||||
 x8 | x8 | x8 | x8 | x8 | x8 ||[K:Bb] x8 | x8 | x6 (GA) | B2 (GA) B2 x2 | x8 | x8 | x8 | x8 | x8 | %33
w: ||||||||Dol- *|||||||
 x8 | x8 | x8 || x8 | x8 | x8 | x8 |] %40
w: |||||||
V:5
 z8 |!mf! (Bc) d2 (Bc) d2 | z8 |!>(! (Bc) d2!>)! G4 | z4!p! GG AB | d=e (^fg) z4 | %6
w: |Dol- * li, Dol- * li.||Dol- * li- a.|Fresh aa come frae|Sand- gate Street, _|
 _ee =fg cc (de) | g2 d2!<(! B2 (c!<)!d) | e2 g2!<(! BB c!<)!d |!>(! ec (BA)!>)! G3 ^F | %10
w: Fresh aa come frae Sand- gate Street, _|Dol- li, Dol- li _|Dol- li, Fresh aa come frae|Sand- gate Street, * Dol- li,|
 (G4 d2) e2 |"^rit." e2 dc dB G2 ||[K:Eb]!p!"^tearfully" cc de fd c2 | (ef) g2 (ef)gc | %14
w: Dol- * li,|Dol- li the dil- len dol.|The Black Cuffs is gawn a- way,|Dol- * li, Dol- * li, And|
!>(! cc!>)! d!pp!e !>!fd c2 | (ef) g2 c4 |"^tearfully"!p!!<(! ee"^poco rit." fg a!<)!!>(!f!>)! e2 | %17
w: that 'll be a cry- ing day|Dol- * li- a.|The Black Cuffs is gawn a- way.|
 (!>!ed) (c=B) (!>!ed) (cB) |!pp! c!<(!e fg!<)! !>!a!>(!f!>)! e2 | %19
w: Dol- * li, _ Dol- * li, _|That 'll be a cry- ing day,|
"^a tempo"!<(! c4!<)!!>)!!>(! c4 | z8 |!p!!>(! g2 c2!>)!!>(! g2!>)! c2 | z8 | %23
w: Dol- li.||Dol- li, Dol- li,||
"^rit." z2!>(! GF ED!>)! C2 ||[K:Bb] z4 z2!mf! (Bc) | d2 (Bc) d7/2!ff! G/ | %26
w: dil- len, dil- len dol.|Dol- *|li, Dol- * li. And|
"^boisterously" GG AB !>!cA G2 | (Bc) d2 G2 GA |!f! BB cB ec d2 | e2 d2 (de) dc | BB cB ec d2 | %31
w: that 'll make the lass- es sing|Dol- * li- a, Dol- li|The Green Cuffs is cum- min' in,|Dol- li, Dol- * li, And|that 'll make the lass- es sing,|
 e2 c2 B4 | z8 | !>!d2 =ef g2 =B2 |!<(! c2 d!<)!_e!>(! f2!>)! c2 |"^rit." d2 D2 D4 || %36
w: Dol- li- a.||Dol- li the dil- len,|Dol- li the dil- len,|dil- len dol.|
!ff!"^prominent" G/G/A/B/ c/A/G/B/ d/e/d/c/ d/c/B | (eg) ^f2 (gd) a3/2 z/ | %38
w: The Green Cuffs is cum- min' in, And that 'll make the lass- es sing,|Dol- * li' Dol- * li,|
"^prominent" G/G/A/B/ c/A/G/B/ d/e/d/c/ d/c/B |"^rit." (eg) c2 !fermata!=B4 |] %40
w: The Green Cuffs is cum- min' in, And that 'll make the lass- es sing,|Dol- * li- a.|
V:6
!mf! G,G, A,B, CA, G,2 | (G,A,) B,2 (G,A,) B,2 |!>(!!<(! G,2!>)! A,B,!<)!!>(! CA,!>)! G,2 | %3
w: Fresh aa come frae Sand- gate street,|Dol- * li, Dol- * li,|Ma best freends here to meet,|
!>(! E,2 D,C, (B,,!>)!A,, G,,2) | z8 |!p! G,G, A,B, G,G, (A,B,) | %6
w: Dol- li- * a. * *||Fresh aa come frae Sand- gate Street, _|
"^*Pronounce: Doll-lee-ah" C3 G, E,2 C,2 | D,D, =E,^F, G,G, (A,B,) | C4 G,4 | E,2 D,2 E,2 D,2 | %10
w: Dol- li, Dol- li,|Fresh aa come frae Sand- gate Street, *|Dol- li,|Dol- li, Dol- li,|
 C,4 B,,2 C,2 |"^rit." D,2 D,2 G,,4 ||[K:Eb] z8 | z8 | %14
w: Dol- li the|dil- len dol.|||
 z3/2!pp! C,/ C,C,!<(! D,!<)!E,!>(! !>!F,!>)!D, | (C,2 =B,,2 C,4) | z8 | %17
w: And that 'll be a cry- ing|day _ _||
!p!!<(! C,2 D,2!<)!!<(! C,2!<)! D,2 | C,4 z4 |"^a tempo"!<(! C,C, D,E,!<)! !>!F,!>(!D,!>)! C,2 | %20
w: Dol- li, Dol- li-|a|That 'll be a cry- ing day,|
 F,2 E,D, E,2 (E,D,) | C,8 | (F,3 A,) G,2 A,2 |"^rit." (G,F,)!>(! (E,D,)!>)! C,4 || %24
w: Dol- li the dil- len _|dol.|Dol- * li the|dil- * len _ dol.|
[K:Bb] z4!mf! z2 (G,A,) | B,2 (G,A,) B,7/2!ff! G,/ |"^boisterously" G,G, A,B, !>!CA, G,2 | %27
w: Dol- *|li, Dol- * li And|that 'll make the lass- es sing.|
 (B,C) D2 G,4 |"^marcato"!f! G,2 G,2 A,2 B,2 | C2 A,2 G,7/2 G,/ | G,2 G,2 A,2 B,2 | C2 A,2 G,4 | %32
w: Dol- * li- a.|The Green Cuffs is|cum- min' in, And|that 'll make the|lass- es sing,|
 C4 B,4 | B,2 A,2 G,2 F,2 | E,4 D,2 C,2 |"^rit." B,,2 A,,2 G,,4 ||!ff! !>!G,2 !>!G,2 !>!A,2 B,2 | %37
w: Dol- li,|Dol- li, Dol- li,|Dol- li the|dil- len dol.|The Green Cuffs is|
 !>!C2 !>!A,2 !>!G,4 | !>!G,2 !>!G,2 !>!A,2 !>!B,2 | %39
w: cum- min' in,|The Green Cuffs is|
"^rit." !>!CC/!>!C/ !>!A,/!>!C/!>!B,/!>!A,/ !>!G,!>!D, !fermata!G,,2 |] %40
w: cum- min', and that 'll make the lass- es sing|

